Numix-GalliumOS/22/actions/gtk-orientation-reverse-portrait.svg

<?xml version="1.0" encoding="UTF-8" standalone="no"?>
<svg
   xmlns:dc="http://purl.org/dc/elements/1.1/"
   xmlns:cc="http://creativecommons.org/ns#"
   xmlns:rdf="http://www.w3.org/1999/02/22-rdf-syntax-ns#"
   xmlns:svg="http://www.w3.org/2000/svg"
   xmlns="http://www.w3.org/2000/svg"
   xmlns:sodipodi="http://sodipodi.sourceforge.net/DTD/sodipodi-0.dtd"
   xmlns:inkscape="http://www.inkscape.org/namespaces/inkscape"
   width="22"
   height="22"
   viewBox="0 0 22 22"
   id="svg2"
   version="1.1"
   inkscape:version="0.91 r"
   sodipodi:docname="gtk-orientation-reverse-portrait.svg">
  <metadata
     id="metadata14">
    <rdf:RDF>
      <cc:Work
         rdf:about="">
        <dc:format>image/svg+xml</dc:format>
        <dc:type
           rdf:resource="http://purl.org/dc/dcmitype/StillImage" />
        <dc:title></dc:title>
      </cc:Work>
    </rdf:RDF>
  </metadata>
  <defs
     id="defs12" />
  <sodipodi:namedview
     pagecolor="#ffffff"
     bordercolor="#666666"
     borderopacity="1"
     objecttolerance="10"
     gridtolerance="10"
     guidetolerance="10"
     inkscape:pageopacity="0"
     inkscape:pageshadow="2"
     inkscape:window-width="1366"
     inkscape:window-height="747"
     id="namedview10"
     showgrid="false"
     inkscape:zoom="7.5853273"
     inkscape:cx="24.672975"
     inkscape:cy="4.1864547"
     inkscape:window-x="0"
     inkscape:window-y="21"
     inkscape:window-maximized="1"
     inkscape:current-layer="svg2" />
  <path
     style="fill:#dc322f"
     d="M 2,22 2,0 20,0 20,22 Z"
     id="path4"
     inkscape:connector-curvature="0" />
  <path
     inkscape:connector-curvature="0"
     style="color:#bebebe;fill:#ffffff;fill-opacity:0.90196078"
     d="M 13.997049,15.288501 C 14.475384,13.591116 14.486412,11.241096 13.632815,10.08191 13.274042,9.532055 12.784491,8.80894 13.1682,8.150888 13.877511,7.124255 15.059945,6.570435 16.13657,6.01111 16.502315,5.9737 16.370199,5.634793 16.39469,5.384834 16.395276,5.186045 16.454524,4.926423 16.162382,5.019505 l -4.749391,0 -0.825981,0 -4.749393,0 C 5.545476,4.926425 5.604725,5.186045 5.605309,5.384834 5.629809,5.634793 5.497683,5.973699 5.863428,6.01111 6.940055,6.570435 8.122487,7.124255 8.831798,8.150888 9.215507,8.80894 8.725956,9.532055 8.367185,10.08191 7.465469,11.343773 7.348214,14.089276 8.005818,15.326978 8.599999,16.4 9.199999,16.958769 11,17 c 1.802868,-0.0725 2.399999,-0.6 2.997049,-1.711499 z"
     id="path4136" />
</svg>

<svg xmlns="http://www.w3.org/2000/svg" viewBox="0 0 22 22">
 <path d="m 2 22 0 -22 18 0 0 22" style="fill:#dc322f"/>
 <path d="m 13.997 15.289 c 0.478 -1.697 0.489 -4.047 -0.364 -5.207 -0.359 -0.55 -0.848 -1.273 -0.465 -1.931 0.709 -1.027 1.892 -1.58 2.968 -2.14 0.366 -0.037 0.234 -0.376 0.258 -0.626 0.001 -0.199 0.06 -0.458 -0.232 -0.365 l -4.749 0 -0.826 0 -4.749 0 c -0.292 -0.093 -0.233 0.167 -0.232 0.365 0.024 0.25 -0.108 0.589 0.258 0.626 1.077 0.559 2.259 1.113 2.968 2.14 0.384 0.658 -0.106 1.381 -0.465 1.931 -0.902 1.262 -1.019 4.01 -0.361 5.245 0.594 1.073 1.194 1.632 2.994 1.673 c 1.803 -0.073 2.4 -0.6 2.997 -1.711 z" style="fill:#fff;fill-opacity:0.902;color:#bebebe"/>
</svg>
